icons/umbrella-line.svg

<svg viewBox="0 0 24 24" fill="currentColor" xmlns="http://www.w3.org/2000/svg">
    <path d="M12.998 2.04938C18.0514 2.5511 21.998 6.81465 21.998 12V13H12.998V19C12.998 20.1046 13.8935 21 14.998 21C16.1026 21 16.998 20.1046 16.998 19V18H18.998V19C18.998 21.2091 17.2072 23 14.998 23C12.7889 23 10.998 21.2091 10.998 19V13H1.99805V12C1.99805 6.81465 5.94472 2.5511 10.998 2.04938V2C10.998 1.44772 11.4458 1 11.998 1C12.5503 1 12.998 1.44772 12.998 2V2.04938ZM19.9362 11C19.4441 7.05369 16.0777 4 11.998 4C7.91843 4 4.55204 7.05369 4.05994 11H19.9362Z"/>
</svg>

<svg xmlns="http://www.w3.org/2000/svg" viewBox="0 0 24 24">
    <g>
        <path fill="none" d="M0 0h24v24H0z"/>
        <path fill-rule="nonzero" d="M13 2.05c5.053.501 9 4.765 9 9.95v1h-9v6a2 2 0 1 0 4 0v-1h2v1a4 4 0 1 1-8 0v-6H2v-1c0-5.185 3.947-9.449 9-9.95V2a1 1 0 0 1 2 0v.05zM19.938 11a8.001 8.001 0 0 0-15.876 0h15.876z"/>
    </g>
</svg>
